pix_plugins/mod/feedback/notrequired.svg

<!DOCTYPE svg PUBLIC "-//W3C//DTD SVG 1.1//EN" "http://www.w3.org/Graphics/SVG/1.1/DTD/svg11.dtd" [
	<!ENTITY ns_flows "http://ns.adobe.com/Flows/1.0/">
]><svg xmlns="http://www.w3.org/2000/svg" width="12" height="12" viewBox="0 -0.4 12 12" preserveAspectRatio="xMinYMid meet" overflow="visible" enable-background="new 0 -0.4 12 12"><path d="M11 4.1h-2.4l1.2-2.1c.3-.5.1-1.1-.4-1.4l-.8-.5c-.5-.2-1.1-.1-1.4.4l-1.2 2.1-1.2-2.1c-.3-.5-.9-.6-1.4-.4l-.8.5c-.5.3-.7.9-.4 1.4l1.2 2.1h-2.4c-.5 0-1 .4-1 1v1c0 .6.5 1 1 1h2.4l-1.2 2.1c-.3.5-.1 1.1.4 1.4l.8.4c.5.3 1.1.1 1.4-.4l1.2-2 1.2 2.1c.3.5.9.6 1.4.4l.9-.5c.5-.3.6-.9.4-1.4l-1.3-2.1h2.4c.5 0 1-.5 1-1v-1c0-.6-.5-1-1-1zm0 2h-4.1l2.1 3.6-.9.5-2.1-3.6-2.1 3.6-.8-.5 2.1-3.6h-4.2v-1h4.1l-2-3.6.8-.5 2.1 3.6 2.1-3.6.9.5-2.1 3.6h4.1v1z" fill="#999"/></svg>

<!DOCTYPE svg PUBLIC "-//W3C//DTD SVG 1.1//EN" "http://www.w3.org/Graphics/SVG/1.1/DTD/svg11.dtd" [
	<!ENTITY ns_flows "http://ns.adobe.com/Flows/1.0/">
]><svg xmlns="http://www.w3.org/2000/svg" width="12" height="12" viewBox="0 -0.4 12 12" preserveAspectRatio="xMinYMid meet" overflow="visible"><path d="M11 4.1H8.6L9.8 2c.3-.5.1-1.1-.4-1.4L8.6.1C8.1-.1 7.5 0 7.2.5L6 2.6 4.8.5C4.5 0 3.9-.1 3.4.1l-.8.5c-.5.3-.7.9-.4 1.4l1.2 2.1H1c-.5 0-1 .4-1 1v1c0 .6.5 1 1 1h2.4L2.2 9.2c-.3.5-.1 1.1.4 1.4l.8.4c.5.3 1.1.1 1.4-.4l1.2-2 1.2 2.1c.3.5.9.6 1.4.4l.9-.5c.5-.3.6-.9.4-1.4L8.6 7.1H11c.5 0 1-.5 1-1v-1c0-.6-.5-1-1-1zm0 2H6.9L9 9.7l-.9.5L6 6.6l-2.1 3.6-.8-.5 2.1-3.6H1v-1h4.1l-2-3.6.8-.5L6 4.6 8.1 1l.9.5-2.1 3.6H11v1z" fill="#999"/></svg>
